Lila_HD/actions/scalable/view-sidebar-symbolic.svg

<?xml version="1.0" encoding="UTF-8"?>
<!-- Created with Inkscape (http://www.inkscape.org/) -->
<svg version="1.1" viewBox="0 0 16 16" xmlns="http://www.w3.org/2000/svg" xmlns:cc="http://creativecommons.org/ns#" xmlns:dc="http://purl.org/dc/elements/1.1/" xmlns:rdf="http://www.w3.org/1999/02/22-rdf-syntax-ns#">
<metadata>
<rdf:RDF>
<cc:Work rdf:about="">
<dc:format>image/svg+xml</dc:format>
<dc:type rdf:resource="http://purl.org/dc/dcmitype/StillImage"/>
<dc:title/>
</cc:Work>
</rdf:RDF>
</metadata>
<g transform="translate(8065.3 -1112.4)">
<g transform="translate(-4488.4 2541.1)"></g>
<path transform="translate(-8065.3 1112.4)" d="m1 1v2 10 2h7v-14zm2 2h3v10h-3z" color="#000000" fill="#999" fill-opacity=".91237"/>
<path d="m-8054.3 1114.4c-0.554 0-1 0.446-1 1s0.446 1 1 1h3c0.554 0 1-0.446 1-1s-0.446-1-1-1zm0 5c-0.554 0-1 0.446-1 1s0.446 1 1 1h3c0.554 0 1-0.446 1-1s-0.446-1-1-1zm0 5c-0.554 0-1 0.446-1 1s0.446 1 1 1h3c0.554 0 1-0.446 1-1s-0.446-1-1-1z" color="#000000" fill="#999" fill-opacity=".91237"/>
</g>
</svg>

<?xml version="1.0" encoding="UTF-8" standalone="no"?>
<!-- Created with Inkscape (http://www.inkscape.org/) -->

<svg
   xmlns:dc="http://purl.org/dc/elements/1.1/"
   xmlns:cc="http://creativecommons.org/ns#"
   xmlns:rdf="http://www.w3.org/1999/02/22-rdf-syntax-ns#"
   xmlns:svg="http://www.w3.org/2000/svg"
   xmlns="http://www.w3.org/2000/svg"
   xmlns:sodipodi="http://sodipodi.sourceforge.net/DTD/sodipodi-0.dtd"
   xmlns:inkscape="http://www.inkscape.org/namespaces/inkscape"
   width="16"
   height="16"
   id="svg13094"
   version="1.1"
   inkscape:version="0.48.3.1 r9886"
   sodipodi:docname="view-sidebar-symbolic.svg">
  <sodipodi:namedview
     id="base"
     pagecolor="#ffffff"
     bordercolor="#666666"
     borderopacity="1.0"
     inkscape:pageopacity="0.0"
     inkscape:pageshadow="2"
     inkscape:zoom="31.999999"
     inkscape:cx="11.62223"
     inkscape:cy="8.2570363"
     inkscape:document-units="px"
     inkscape:current-layer="layer1"
     showgrid="true"
     inkscape:snap-bbox="true"
     inkscape:bbox-paths="true"
     inkscape:bbox-nodes="true"
     inkscape:snap-bbox-edge-midpoints="true"
     inkscape:snap-bbox-midpoints="true"
     inkscape:object-paths="true"
     inkscape:snap-intersection-paths="true"
     inkscape:object-nodes="true"
     inkscape:snap-smooth-nodes="true"
     inkscape:snap-midpoints="true"
     inkscape:snap-object-midpoints="true"
     inkscape:snap-center="true"
     showguides="true"
     inkscape:guide-bbox="true"
     inkscape:window-width="1920"
     inkscape:window-height="1023"
     inkscape:window-x="-10"
     inkscape:window-y="35"
     inkscape:window-maximized="1"
     inkscape:snap-global="true"
     fit-margin-top="0"
     fit-margin-left="0"
     fit-margin-right="0"
     fit-margin-bottom="0"
     showborder="true"
     inkscape:showpageshadow="false">
    <sodipodi:guide
       id="guide16149"
       position="6600.9799,1256.4462"
       orientation="0,1" />
    <sodipodi:guide
       id="guide16151"
       position="6373.837,1207.4375"
       orientation="0,1" />
    <sodipodi:guide
       id="guide16153"
       position="6439.5512,1231.9418"
       orientation="0,1" />
    <sodipodi:guide
       id="guide17725"
       position="6433.1227,1151.7946"
       orientation="0,1" />
    <sodipodi:guide
       id="guide9456"
       position="6930.621,759.92494"
       orientation="1,0" />
    <sodipodi:guide
       id="guide9458"
       position="6754.871,1124.9738"
       orientation="0,1" />
    <sodipodi:guide
       id="guide9468"
       position="6526.1013,1070.0684"
       orientation="0,1" />
    <sodipodi:guide
       id="guide9470"
       position="6550.621,1091.4384"
       orientation="0,1" />
    <sodipodi:guide
       id="guide11159"
       position="6418.621,805.43894"
       orientation="1,0" />
    <sodipodi:guide
       id="guide13980"
       position="6731.6522,1069.4734"
       orientation="1,0" />
    <sodipodi:guide
       orientation="0,1"
       position="4877.6211,-305.56102"
       id="guide3972" />
    <sodipodi:guide
       orientation="1,0"
       position="5057.6211,-433.56107"
       id="guide3974" />
    <sodipodi:guide
       orientation="0,1"
       position="4751.6211,-668.56097"
       id="guide3976" />
    <sodipodi:guide
       orientation="1,0"
       position="4724.6211,-527.56107"
       id="guide3978" />
    <sodipodi:guide
       orientation="1,0"
       position="74.391986,937.43894"
       id="guide4287" />
    <sodipodi:guide
       orientation="0,1"
       position="74.391986,937.43894"
       id="guide4289" />
    <inkscape:grid
       type="xygrid"
       id="grid3256"
       empspacing="5"
       visible="true"
       enabled="true"
       snapvisiblegridlinesonly="true"
       originx="-5.7144049e-05px"
       originy="10.000086px" />
  </sodipodi:namedview>
  <defs
     id="defs13096" />
  <metadata
     id="metadata13099">
    <rdf:RDF>
      <cc:Work
         rdf:about="">
        <dc:format>image/svg+xml</dc:format>
        <dc:type
           rdf:resource="http://purl.org/dc/dcmitype/StillImage" />
        <dc:title />
      </cc:Work>
    </rdf:RDF>
  </metadata>
  <g
     transform="translate(8065.2656,-1112.3712)"
     id="layer1"
     inkscape:groupmode="layer"
     inkscape:label="Camada 1">
    <g
       transform="translate(-4488.3896,2541.1286)"
       id="g10690-2">
      <g
         id="g4224"
         transform="matrix(0.97058134,0,0,-0.97058134,-134.00158,566.00207)" />
    </g>
    <path
       style="color:#000000;fill:#999999;fill-opacity:0.912371168;fill-rule:nonzero;stroke:none;stroke-width:1;marker:none;visibility:visible;display:inline;overflow:visible;enable-background:accumulate"
       d="M 1,1 1,3 1,13 1,15 8,15 8,1 z M 3,3 6,3 6,13 3,13 z"
       transform="translate(-8065.2656,1112.3712)"
       id="rect3041"
       inkscape:connector-curvature="0"
       sodipodi:nodetypes="cccccccccccc" />
    <path
       inkscape:connector-curvature="0"
       style="color:#000000;fill:#999999;fill-opacity:0.912371168;fill-rule:nonzero;stroke:none;stroke-width:2;marker:none;visibility:visible;display:inline;overflow:visible;enable-background:accumulate"
       d="m -8054.2657,1114.3711 c -0.554,0 -1,0.446 -1,1 0,0.554 0.446,1 1,1 l 3,0 c 0.554,0 1,-0.446 1,-1 0,-0.554 -0.446,-1 -1,-1 z m 0,5 c -0.554,0 -1,0.446 -1,1 0,0.554 0.446,1 1,1 l 3,0 c 0.554,0 1,-0.446 1,-1 0,-0.554 -0.446,-1 -1,-1 z m 0,5 c -0.554,0 -1,0.446 -1,1 0,0.554 0.446,1 1,1 l 3,0 c 0.554,0 1,-0.446 1,-1 0,-0.554 -0.446,-1 -1,-1 z"
       id="rect3090"
       sodipodi:nodetypes="sssssssssssssssssssss" />
  </g>
</svg>
